storage/app/icons/phosphoricons/duotone/paperclip-horizontal-duotone.svg

<svg xmlns="http://www.w3.org/2000/svg" fill="currentColor" viewBox="0 0 256 256"><path d="M240 128a48 48 0 0 1-48 48H48a32 32 0 0 1 0-64h32V80h112a48 48 0 0 1 48 48" opacity=".2"/><path d="M248 128a56.06 56.06 0 0 1-56 56H48a40 40 0 0 1 0-80h144a24 24 0 0 1 0 48H80a8 8 0 0 1 0-16h112a8 8 0 0 0 0-16H48a24 24 0 0 0 0 48h144a40 40 0 0 0 0-80H80a8 8 0 0 1 0-16h112a56.06 56.06 0 0 1 56 56"/></svg>

<svg xmlns="http://www.w3.org/2000/svg" viewBox="0 0 256 256" fill="currentColor"><path d="M240,128a48,48,0,0,1-48,48H48a32,32,0,0,1,0-64H80V80H192A48,48,0,0,1,240,128Z" opacity="0.2"/><path d="M248,128a56.06,56.06,0,0,1-56,56H48a40,40,0,0,1,0-80H192a24,24,0,0,1,0,48H80a8,8,0,0,1,0-16H192a8,8,0,0,0,0-16H48a24,24,0,0,0,0,48H192a40,40,0,0,0,0-80H80a8,8,0,0,1,0-16H192A56.06,56.06,0,0,1,248,128Z"/></svg>
